flaticon/emoticons/shocked-1.svg

<svg xmlns="http://www.w3.org/2000/svg" width="32" height="32" viewBox="0 0 24 24">
    <path d="M 23.917969 10.625 C 23.757812 9.949219 23.371094 9.363281 22.886719 9.066406 C 22.5625 8.867188 22.214844 8.800781 21.882812 8.882812 C 21.808594 8.898438 21.734375 8.925781 21.664062 8.960938 C 20.730469 6.6875 19.273438 5.214844 17.773438 4.265625 L 18.316406 3.179688 C 18.417969 2.980469 18.335938 2.742188 18.140625 2.640625 C 17.941406 2.542969 17.699219 2.625 17.601562 2.820312 L 17.082031 3.863281 C 16.835938 3.730469 16.589844 3.613281 16.347656 3.507812 L 16.738281 2.328125 C 16.808594 2.117188 16.695312 1.890625 16.488281 1.820312 C 16.277344 1.75 16.050781 1.863281 15.980469 2.074219 L 15.601562 3.210938 C 15.324219 3.113281 15.054688 3.027344 14.796875 2.953125 L 15.140625 1.925781 C 15.210938 1.714844 15.097656 1.488281 14.886719 1.421875 C 14.675781 1.347656 14.449219 1.464844 14.378906 1.671875 L 14.015625 2.761719 C 13.511719 2.65625 13.078125 2.597656 12.757812 2.566406 L 12.757812 1.800781 C 12.757812 1.578125 12.582031 1.398438 12.359375 1.398438 C 12.136719 1.398438 11.960938 1.578125 11.960938 1.800781 L 11.960938 2.539062 C 11.75 2.546875 11.382812 2.578125 10.90625 2.652344 L 10.753906 1.734375 C 10.71875 1.515625 10.511719 1.367188 10.292969 1.40625 C 10.074219 1.441406 9.929688 1.648438 9.964844 1.863281 L 10.121094 2.800781 C 9.691406 2.898438 9.21875 3.03125 8.71875 3.210938 L 8.339844 2.074219 C 8.269531 1.863281 8.046875 1.75 7.832031 1.820312 C 7.625 1.890625 7.511719 2.117188 7.582031 2.324219 L 7.972656 3.503906 C 7.628906 3.65625 7.277344 3.832031 6.925781 4.035156 L 6.316406 2.820312 C 6.21875 2.625 5.976562 2.542969 5.78125 2.640625 C 5.582031 2.742188 5.503906 2.980469 5.601562 3.179688 L 6.242188 4.460938 C 5.890625 4.699219 5.542969 4.972656 5.203125 5.277344 L 4.242188 4.316406 C 4.085938 4.160156 3.832031 4.160156 3.675781 4.316406 C 3.519531 4.472656 3.519531 4.726562 3.675781 4.882812 L 4.632812 5.835938 C 3.402344 7.148438 2.375 8.972656 1.902344 11.523438 C 1.894531 11.554688 1.890625 11.589844 1.886719 11.621094 C 1.785156 11.59375 1.679688 11.574219 1.574219 11.574219 C 0.691406 11.574219 0 12.527344 0 13.746094 C 0 14.960938 0.691406 15.914062 1.574219 15.914062 C 1.738281 15.914062 1.894531 15.875 2.046875 15.808594 C 2.328125 16.875 2.792969 17.878906 3.429688 18.757812 C 4.707031 20.519531 7.214844 22.601562 11.9375 22.601562 C 12.011719 22.601562 12.082031 22.601562 12.15625 22.597656 C 17 22.664062 19.585938 20.546875 20.882812 18.757812 C 22.035156 17.171875 22.621094 15.183594 22.574219 13.128906 C 22.589844 13.128906 22.601562 13.132812 22.617188 13.132812 C 22.707031 13.132812 22.796875 13.125 22.886719 13.101562 C 23.746094 12.898438 24.199219 11.808594 23.917969 10.625 Z M 1.871094 14.996094 C 1.789062 15.0625 1.6875 15.113281 1.574219 15.113281 C 1.207031 15.113281 0.800781 14.550781 0.800781 13.746094 C 0.800781 12.9375 1.207031 12.375 1.574219 12.375 C 1.640625 12.375 1.710938 12.394531 1.777344 12.429688 C 1.757812 12.644531 1.746094 12.855469 1.738281 13.066406 C 1.738281 13.082031 1.738281 13.097656 1.738281 13.113281 C 1.734375 13.289062 1.734375 13.464844 1.738281 13.636719 C 1.742188 13.695312 1.742188 13.75 1.746094 13.808594 C 1.753906 13.949219 1.761719 14.089844 1.773438 14.230469 C 1.78125 14.289062 1.785156 14.347656 1.789062 14.40625 C 1.808594 14.578125 1.832031 14.753906 1.859375 14.925781 C 1.863281 14.949219 1.867188 14.972656 1.871094 14.996094 Z M 20.234375 18.289062 C 18.507812 20.667969 15.796875 21.847656 12.160156 21.800781 L 12.152344 21.800781 C 12.078125 21.800781 12.003906 21.800781 11.929688 21.800781 C 8.410156 21.800781 5.769531 20.621094 4.078125 18.289062 C 3.253906 17.152344 2.746094 15.785156 2.585938 14.34375 C 2.582031 14.3125 2.582031 14.28125 2.582031 14.25 C 2.558594 14.019531 2.546875 13.792969 2.539062 13.558594 C 2.539062 13.460938 2.539062 13.359375 2.542969 13.257812 C 2.542969 13.09375 2.550781 12.933594 2.558594 12.769531 C 2.566406 12.652344 2.574219 12.53125 2.589844 12.414062 C 2.613281 12.164062 2.644531 11.914062 2.6875 11.667969 C 3.128906 9.296875 4.0625 7.601562 5.183594 6.386719 L 5.675781 6.882812 C 5.753906 6.960938 5.859375 7 5.960938 7 C 6.0625 7 6.164062 6.960938 6.242188 6.882812 C 6.398438 6.726562 6.398438 6.472656 6.242188 6.316406 L 5.75 5.824219 C 6.023438 5.578125 6.304688 5.351562 6.589844 5.152344 L 6.800781 5.578125 C 6.871094 5.71875 7.011719 5.800781 7.160156 5.800781 C 7.21875 5.800781 7.28125 5.785156 7.339844 5.757812 C 7.535156 5.660156 7.617188 5.417969 7.519531 5.222656 L 7.265625 4.71875 C 7.585938 4.535156 7.902344 4.371094 8.214844 4.230469 L 8.378906 4.726562 C 8.4375 4.894531 8.59375 5 8.757812 5 C 8.800781 5 8.84375 4.992188 8.886719 4.980469 C 9.09375 4.910156 9.207031 4.683594 9.140625 4.472656 L 8.957031 3.933594 C 9.417969 3.769531 9.851562 3.652344 10.25 3.566406 L 10.363281 4.265625 C 10.398438 4.460938 10.566406 4.601562 10.757812 4.601562 C 10.78125 4.601562 10.800781 4.597656 10.824219 4.59375 C 11.042969 4.558594 11.191406 4.351562 11.152344 4.136719 L 11.035156 3.425781 C 11.445312 3.367188 11.765625 3.34375 11.960938 3.335938 L 11.960938 4.199219 C 11.960938 4.421875 12.136719 4.601562 12.359375 4.601562 C 12.582031 4.601562 12.757812 4.421875 12.757812 4.199219 L 12.757812 3.371094 C 13.027344 3.394531 13.367188 3.441406 13.765625 3.519531 L 13.578125 4.074219 C 13.511719 4.28125 13.625 4.507812 13.832031 4.578125 C 13.875 4.59375 13.917969 4.601562 13.960938 4.601562 C 14.125 4.601562 14.28125 4.492188 14.339844 4.328125 L 14.546875 3.699219 C 14.804688 3.769531 15.074219 3.855469 15.351562 3.953125 L 15.179688 4.472656 C 15.109375 4.683594 15.222656 4.910156 15.433594 4.980469 C 15.472656 4.992188 15.515625 5 15.558594 5 C 15.726562 5 15.882812 4.894531 15.9375 4.726562 L 16.097656 4.253906 C 16.167969 4.285156 16.238281 4.3125 16.308594 4.347656 C 16.453125 4.414062 16.589844 4.488281 16.730469 4.5625 L 16.402344 5.21875 C 16.300781 5.417969 16.382812 5.660156 16.578125 5.757812 C 16.636719 5.785156 16.699219 5.800781 16.757812 5.800781 C 16.90625 5.800781 17.046875 5.71875 17.117188 5.578125 L 17.421875 4.96875 C 19.089844 6.042969 20.300781 7.574219 21.035156 9.539062 L 21.109375 9.746094 C 21.21875 10.050781 21.3125 10.359375 21.394531 10.667969 C 21.402344 10.6875 21.40625 10.707031 21.410156 10.726562 C 21.492188 11.035156 21.5625 11.347656 21.625 11.667969 C 21.671875 11.929688 21.703125 12.195312 21.730469 12.457031 C 21.734375 12.507812 21.742188 12.558594 21.746094 12.609375 C 21.914062 14.675781 21.386719 16.703125 20.234375 18.289062 Z M 22.699219 12.324219 C 22.644531 12.335938 22.585938 12.335938 22.523438 12.324219 C 22.523438 12.308594 22.519531 12.296875 22.519531 12.28125 C 22.492188 12.03125 22.457031 11.777344 22.410156 11.527344 C 22.410156 11.523438 22.410156 11.523438 22.410156 11.523438 C 22.410156 11.515625 22.410156 11.511719 22.40625 11.507812 C 22.351562 11.203125 22.285156 10.914062 22.214844 10.628906 C 22.207031 10.597656 22.195312 10.570312 22.1875 10.539062 C 22.117188 10.261719 22.035156 9.992188 21.953125 9.734375 C 21.949219 9.726562 21.949219 9.722656 21.945312 9.714844 C 21.988281 9.6875 22.027344 9.667969 22.070312 9.660156 C 22.222656 9.621094 22.371094 9.6875 22.46875 9.746094 C 22.769531 9.933594 23.027344 10.339844 23.140625 10.8125 C 23.324219 11.597656 23.058594 12.238281 22.699219 12.324219 Z M 22.699219 12.324219"/>
    <path d="M 11.199219 10 C 11.199219 8.125 9.941406 6.601562 8.398438 6.601562 C 6.855469 6.601562 5.601562 8.125 5.601562 10 C 5.601562 11.875 6.855469 13.398438 8.398438 13.398438 C 9.941406 13.398438 11.199219 11.875 11.199219 10 Z M 8.398438 12.597656 C 7.296875 12.597656 6.398438 11.433594 6.398438 10 C 6.398438 8.566406 7.296875 7.398438 8.398438 7.398438 C 9.503906 7.398438 10.398438 8.566406 10.398438 10 C 10.398438 11.433594 9.503906 12.597656 8.398438 12.597656 Z M 8.398438 12.597656"/>
    <path d="M9.601562 10C9.601562 9.003906 9.0625 8.199219 8.398438 8.199219 7.738281 8.199219 7.199219 9.003906 7.199219 10 7.199219 10.992188 7.738281 11.800781 8.398438 11.800781 9.0625 11.800781 9.601562 10.992188 9.601562 10zM15.597656 6.601562C14.054688 6.601562 12.800781 8.125 12.800781 10 12.800781 11.875 14.054688 13.398438 15.597656 13.398438 17.144531 13.398438 18.398438 11.875 18.398438 10 18.398438 8.125 17.144531 6.601562 15.597656 6.601562zM15.597656 12.597656C14.496094 12.597656 13.597656 11.433594 13.597656 10 13.597656 8.566406 14.496094 7.398438 15.597656 7.398438 16.703125 7.398438 17.597656 8.566406 17.597656 10 17.597656 11.433594 16.703125 12.597656 15.597656 12.597656zM15.597656 12.597656"/>
    <path d="M16.800781 10C16.800781 9.003906 16.261719 8.199219 15.597656 8.199219 14.9375 8.199219 14.398438 9.003906 14.398438 10 14.398438 10.992188 14.9375 11.800781 15.597656 11.800781 16.261719 11.800781 16.800781 10.992188 16.800781 10zM14.800781 17.398438C14.800781 18.945312 13.546875 20.199219 12 20.199219 10.453125 20.199219 9.199219 18.945312 9.199219 17.398438 9.199219 15.851562 10.453125 14.597656 12 14.597656 13.546875 14.597656 14.800781 15.851562 14.800781 17.398438zM14.800781 17.398438"/>
</svg>

<svg xmlns="http://www.w3.org/2000/svg" width="32" height="32" viewBox="0 0 24 24">
    <path d="M23.918 10.625c-.16-.676-.547-1.262-1.031-1.559-.325-.199-.672-.265-1.004-.183a.916.916 0 0 0-.219.078c-.934-2.274-2.39-3.746-3.89-4.695l.542-1.086a.401.401 0 0 0-.175-.54.405.405 0 0 0-.54.18l-.519 1.043a9.688 9.688 0 0 0-.734-.355l.39-1.18a.402.402 0 0 0-.25-.508.4.4 0 0 0-.508.254l-.378 1.137a14.542 14.542 0 0 0-.805-.258l.344-1.027a.395.395 0 0 0-.254-.504.399.399 0 0 0-.508.25l-.363 1.09a11.811 11.811 0 0 0-1.258-.196v-.765a.398.398 0 1 0-.797 0v.738a9.6 9.6 0 0 0-1.055.113l-.152-.918a.396.396 0 0 0-.461-.328.398.398 0 0 0-.328.457l.156.938c-.43.097-.902.23-1.402.41l-.38-1.137a.4.4 0 1 0-.757.25l.39 1.18c-.343.152-.695.328-1.046.531l-.61-1.215a.402.402 0 0 0-.535-.18.403.403 0 0 0-.18.54l.641 1.28c-.351.24-.699.513-1.039.817l-.96-.96a.4.4 0 0 0-.567.566l.957.953c-1.23 1.312-2.258 3.137-2.73 5.687-.008.032-.012.067-.016.098a1.21 1.21 0 0 0-.313-.047c-.883 0-1.574.953-1.574 2.172 0 1.215.691 2.168 1.574 2.168.164 0 .32-.039.473-.105a8.885 8.885 0 0 0 1.383 2.949c1.277 1.762 3.785 3.844 8.508 3.844.074 0 .144 0 .218-.004 4.844.066 7.43-2.051 8.727-3.84 1.152-1.586 1.738-3.574 1.691-5.63.016 0 .028.005.043.005.09 0 .18-.008.27-.031.86-.204 1.312-1.293 1.031-2.477zM1.871 14.996a.477.477 0 0 1-.297.117c-.367 0-.773-.562-.773-1.367 0-.809.406-1.371.773-1.371a.44.44 0 0 1 .203.055c-.02.215-.03.425-.039.636v.047c-.004.176-.004.352 0 .524.004.058.004.113.008.172.008.14.016.28.027.421.008.06.012.118.016.176.02.172.043.348.07.52l.012.07zm18.363 3.293c-1.726 2.379-4.437 3.559-8.074 3.512h-.23c-3.52 0-6.16-1.18-7.852-3.512-.824-1.137-1.332-2.504-1.492-3.945-.004-.031-.004-.063-.004-.094-.023-.23-.035-.457-.043-.691 0-.098 0-.2.004-.301 0-.164.008-.324.016-.488.007-.118.015-.239.03-.356a9.5 9.5 0 0 1 .099-.746c.44-2.371 1.374-4.066 2.496-5.281l.492.496A.405.405 0 0 0 5.96 7a.4.4 0 0 0 .281-.684l-.492-.492c.273-.246.555-.472.84-.672l.21.426a.4.4 0 0 0 .72-.355l-.254-.504c.32-.184.636-.348.949-.489l.164.497a.405.405 0 0 0 .508.253.407.407 0 0 0 .254-.507l-.184-.54c.461-.163.895-.28 1.293-.367l.113.7a.405.405 0 0 0 .395.336c.023 0 .043-.004.066-.008a.395.395 0 0 0 .328-.457l-.117-.711c.41-.059.73-.082.926-.09v.863a.398.398 0 1 0 .797 0v-.828c.27.024.61.07 1.008.149l-.188.554a.404.404 0 0 0 .383.528.41.41 0 0 0 .379-.274l.207-.629c.258.07.527.156.805.254l-.172.52a.4.4 0 0 0 .379.527.397.397 0 0 0 .379-.273l.16-.473c.07.031.14.059.21.094.145.066.282.14.422.215l-.328.656a.4.4 0 1 0 .715.36l.305-.61c1.668 1.074 2.879 2.605 3.613 4.57l.074.207c.11.305.203.613.286.922a14.36 14.36 0 0 1 .23 1c.047.262.078.527.105.789.004.05.012.102.016.152.168 2.067-.36 4.094-1.512 5.68zm2.465-5.965a.443.443 0 0 1-.176 0c0-.015-.003-.027-.003-.043-.028-.25-.063-.504-.11-.754v-.004c0-.007 0-.011-.004-.015a13.888 13.888 0 0 0-.191-.88c-.008-.03-.02-.058-.027-.089a14.01 14.01 0 0 0-.235-.805c-.004-.007-.004-.011-.008-.02a.35.35 0 0 1 .125-.054c.153-.039.301.027.399.086.3.188.558.594.672 1.066.183.786-.082 1.426-.442 1.512zm0 0"/>
    <path d="M11.2 10c0-1.875-1.259-3.398-2.802-3.398-1.543 0-2.796 1.523-2.796 3.398 0 1.875 1.253 3.398 2.796 3.398S11.2 11.875 11.2 10zm-2.802 2.598c-1.101 0-2-1.164-2-2.598s.899-2.602 2-2.602c1.106 0 2 1.168 2 2.602s-.894 2.598-2 2.598zm0 0"/>
    <path d="M9.602 10c0-.996-.54-1.8-1.204-1.8-.66 0-1.199.804-1.199 1.8 0 .992.54 1.8 1.2 1.8.664 0 1.203-.808 1.203-1.8zm0 0M15.598 6.602C14.055 6.602 12.8 8.125 12.8 10c0 1.875 1.254 3.398 2.797 3.398 1.547 0 2.8-1.523 2.8-3.398 0-1.875-1.253-3.398-2.8-3.398zm0 5.996c-1.102 0-2-1.164-2-2.598s.898-2.602 2-2.602c1.105 0 2 1.168 2 2.602s-.895 2.598-2 2.598zm0 0"/>
    <path d="M16.8 10c0-.996-.538-1.8-1.202-1.8-.66 0-1.2.804-1.2 1.8 0 .992.54 1.8 1.2 1.8.664 0 1.203-.808 1.203-1.8zm0 0M14.8 17.398a2.8 2.8 0 1 1-5.6 0 2.8 2.8 0 0 1 5.6 0zm0 0"/>
</svg>
